src/actions/24/download-later.svg

<svg xmlns="http://www.w3.org/2000/svg" viewBox="0 0 24 24">
  <defs id="defs3051">
    <style type="text/css" id="current-color-scheme">
      .ColorScheme-Text {
        color:#2e3440;
      }
      </style>
  </defs>
 <path style="fill:currentColor;fill-opacity:1;stroke:none" 
     d="M 12 4 C 7.5680018 4 4 7.568 4 12 C 4 16.092537 7.0443284 19.441581 11 19.931641 L 11 18.921875 C 7.6006429 18.438059 5 15.537216 5 12 C 5 11.757625 5.0113434 11.519094 5.0351562 11.283203 C 5.3923512 7.7448367 8.3643762 5 12 5 C 15.877999 5 19 8.122 19 12 C 19 12.340784 18.968495 12.672498 18.921875 13 L 19.931641 13 C 19.972295 12.67189 20 12.339463 20 12 C 20 7.568 16.431998 4 12 4 z M 11 6 L 11 13 L 17 13 L 17 12 L 12 12 L 12 6 L 11 6 z M 17 14 L 17 18.292969 L 14.707031 16 L 14 16.707031 L 17.292969 20 L 17.5 20.207031 L 17.707031 20 L 21 16.707031 L 20.292969 16 L 18 18.292969 L 18 14 L 17 14 z "
     class="ColorScheme-Text"
     />
</svg>

<svg viewBox="0 0 24 24" xmlns="http://www.w3.org/2000/svg">
 <defs>
  <style type="text/css">.ColorScheme-Text {
        color:#2e3440;
      }</style>
 </defs>
 <path class="ColorScheme-Text" d="m12 4c-4.432 0-8 3.568-8 8 0 4.0925 3.0443 7.4416 7 7.9316v-1.0098c-3.3994-0.48382-6-3.3847-6-6.9219 0-0.24238 0.011343-0.48091 0.035156-0.7168 0.3572-3.5384 3.3292-6.2832 6.9648-6.2832 3.878 0 7 3.122 7 7 0 0.34078-0.031505 0.6725-0.078125 1h1.0098c0.040654-0.32811 0.068359-0.66054 0.068359-1 0-4.432-3.568-8-8-8zm-1 2v7h6v-1h-5v-6h-1zm6 8v4.293l-2.293-2.293-0.70703 0.70703 3.5 3.5 3.5-3.5-0.70703-0.70703-2.293 2.293v-4.293h-1z" fill="currentColor"/>
</svg>
